src/categories-icons-sprite/categories/svg-cat-cars-cosmetics.svg

<svg width="21" height="33" viewBox="0 0 21 33" fill="none" xmlns="http://www.w3.org/2000/svg">
<path class="p-FF4F1A" d="M3.78906 0C2.68449 0 1.78906 0.895431 1.78906 2V4.80053H3.72266H7.95768H9.89127V2C9.89127 0.895429 8.99584 0 7.89127 0H3.78906Z" fill="#B9DFFC"/>
<path class="p-60DD4E" d="M18.5122 12.8301L11.4849 4.83792C11.1027 4.40286 10.6051 4.09478 10.0579 3.94267C9.80203 3.87112 9.53584 3.83374 9.26514 3.83374H2.95518C1.3258 3.83374 0 5.15954 0 6.78892V33.0001H20.1152V17.0801C20.1152 15.5152 19.5461 14.0057 18.5122 12.8301ZM15.7504 17.9767C15.3489 18.3209 14.8558 18.4891 14.3653 18.4891C13.7653 18.4891 13.1691 18.2371 12.7475 17.7459L10.0579 14.6097L7.75178 11.9207C6.98607 11.028 7.0892 9.68351 7.98187 8.9178C8.57549 8.40927 9.36826 8.28423 10.0579 8.52013C10.406 8.63872 10.7276 8.84948 10.9847 9.14854L15.9805 14.9738C16.7462 15.8665 16.6431 17.211 15.7504 17.9767Z" fill="#65B3E7"/>
<path class="p-00BB64" d="M20.1159 17.0801V33H10.0586V14.6096L12.7482 17.7459C13.1697 18.237 13.7659 18.4891 14.366 18.4891C14.8565 18.4891 15.3496 18.3208 15.7511 17.9767C16.6438 17.2109 16.7469 15.8665 15.9812 14.9738L10.9854 9.14851C10.7283 8.84944 10.4066 8.63868 10.0586 8.52009V3.94263C10.6058 4.09474 11.1034 4.40282 11.4856 4.83788L18.5129 12.8301C19.5467 14.0057 20.1159 15.5152 20.1159 17.0801Z" fill="#4D98CB"/>
<path class="p-FF4F1A" d="M20.1152 27.1338H0V29.0674H20.1152V27.1338Z" fill="#B9DFFC"/>
<path class="p-CA1C00" d="M20.1159 27.1338H10.0586V29.0674H20.1159V27.1338Z" fill="#A1D1FD"/>
</svg>

<svg width="21" height="33" fill="none" xmlns="http://www.w3.org/2000/svg"><path class="p-FF4F1A" d="M3.79 0a2 2 0 00-2 2v2.8H9.89V2a2 2 0 00-2-2H3.79z" fill="#B9DFFC"/><path class="p-60DD4E" d="M18.512 12.83l-7.027-7.992a2.95 2.95 0 00-2.22-1.004h-6.31A2.959 2.959 0 000 6.789V33h20.115V17.08c0-1.565-.569-3.074-1.603-4.25zm-2.762 5.147a2.121 2.121 0 01-1.385.512c-.6 0-1.196-.252-1.617-.743l-2.69-3.136-2.306-2.69a2.13 2.13 0 113.233-2.771l4.995 5.825a2.13 2.13 0 01-.23 3.003z" fill="#65B3E7"/><path class="p-00BB64" d="M20.116 17.08V33H10.059V14.61l2.69 3.136a2.126 2.126 0 001.617.743 2.13 2.13 0 001.615-3.515l-4.996-5.825c-.257-.3-.578-.51-.926-.629V3.943a2.95 2.95 0 011.427.895l7.027 7.992a6.433 6.433 0 011.603 4.25z" fill="#4D98CB"/><path class="p-FF4F1A" d="M20.115 27.134H0v1.933h20.115v-1.933z" fill="#B9DFFC"/><path class="p-CA1C00" d="M20.116 27.134H10.059v1.933h10.057v-1.933z" fill="#A1D1FD"/></svg>
